public/svg/paper.svg

<svg xmlns="http://www.w3.org/2000/svg" width="56" height="56" viewBox="0 0 56 56" fill="none">
<path d="M18.1015 25.6671H37.9005" stroke="#1B5BF7" stroke-width="3.5" stroke-linecap="round" stroke-linejoin="round"/>
<path d="M18.1015 15.8995H37.9005" stroke="#1B5BF7" stroke-width="3.5" stroke-linecap="round" stroke-linejoin="round"/>
<path d="M18.1015 35.8995H37.9005" stroke="#1B5BF7" stroke-width="3.5" stroke-linecap="round" stroke-linejoin="round"/>
<path d="M11.668 49V11.6667C11.668 10.429 12.1596 9.242 13.0348 8.36683C13.91 7.49167 15.097 7 16.3346 7H39.668C40.9056 7 42.0926 7.49167 42.9678 8.36683C43.843 9.242 44.3346 10.429 44.3346 11.6667V49L37.3346 44.3333L32.668 49L28.0013 44.3333L23.3346 49L18.668 44.3333L11.668 49Z" stroke="#1B5BF7" stroke-width="3.5" stroke-linecap="round" stroke-linejoin="round"/>
</svg>

<svg xmlns="http://www.w3.org/2000/svg" width="56" height="56" fill="none" stroke="#1b5bf7" stroke-width="3.5" xmlns:v="https://vecta.io/nano"><path d="M18.102 25.667h19.799M18.102 15.9h19.799m-19.799 20h19.799" stroke-linecap="round" stroke-linejoin="round"/><path d="M11.668 49V11.667c0-1.238.492-2.425 1.367-3.3S15.097 7 16.335 7h23.333c1.238 0 2.425.492 3.3 1.367s1.367 2.062 1.367 3.3V49l-7-4.667L32.668 49l-4.667-4.667L23.335 49l-4.667-4.667-7 4.667z" stroke-linejoin="round"/></svg>
